!!!OTL: Der heimkehrende Braeutigam
!!!OTL-incipit:Es wollt' es ein Juengling werben,
!!!ARE: Europa, Mitteleuropa, Deutschland / France, Elsass
!!!YOR: 5, S. 144
!!    1947 gedruckt in Colmar
!!!SCT: Q0102C
!!!TXL: @@DE
!!!YEM: Copyright 1995, estate of Helmut Schaffrath.
**kern	**text
*ICvox	*
*M6/8	*
*k[f#]	*
*G:	*
!LO:TX:a:t=6 Elsaß	!
{8b	Es
=1	=1
8dL	wollt'
8g	es
8bJ	ein
(8dL	Jüng-
8g)	.
8bJ	-ling
=2	=2
(8bL	wer-
8a	.
8bJ)	.
4a}	-ben,
{8a	in_der
=3	=3
8dL	Ju-
8f#	-gend
8aJ	wollt'
8dL	neh-
8f#	-men
8aJ	ein
=4	=4
(4a	Weib.
8b	.
4g)}	.
{8d	Es
=5	=5
8bL	wird
8b	ihn
8dJ	bald
8gL	wie-
8g	.
8dJ	-der
=6	=6
(4g	reu-
8b)	.
4dd}	-en,
{8b	er
=7	=7
8aL	rei-
8a	-tet
8aJ	hin-
4dd	-aus
8dd	ins
=8	=8
[4.b	Feld.
4b]}	.
{8d	Es
=9	=9
8bL	wird
8b	ihn
8dJ	bald
8gL	wie-
8g	.
8dJ	-der
=10	=10
(4g	reu-
8b)	.
4dd}	-en,
{8b	er
=11	=11
8aL	rei-
8a	-tet
8aJ	hin-
4dd	-aus
8dd	ins
=12	=12
[4.g	Feld.
4g]}	.
==	==
!!!AGN: Ballade, Ehe - Geloebnis, Betrug
!!!ONB: ESAC (Essen Associative Code) Database: BALLADE
!!!AMT: compound duple
!!!AIN: vox
!!!EED: Helmut Schaffrath
!!!EEV: 1.0
!!!source: Deutsche Volkslieder mit ihren Melodien Balladen. Herausgegeben vom Deutschen Volksliedarchiv. Fünfter Teil. Freiburg/Breisgau 1965.
!!!page: 144
!!!ENC: Anna Maria Matuszewska
!!!EEV: 2025/02/28
*-	*-
